images/icons/facebook.svg

<svg width="11" height="24" viewBox="0 0 11 24" fill="none" xmlns="http://www.w3.org/2000/svg">
<path d="M10.3889 8.05966H6.8519V5.73966C6.83272 5.60184 6.84422 5.46148 6.88557 5.32861C6.92693 5.19575 6.99711 5.07366 7.09111 4.97106C7.18511 4.86846 7.30061 4.78788 7.42936 4.73509C7.55811 4.6823 7.69693 4.65859 7.8359 4.66566H10.3359V0.83566L6.8939 0.82666C3.0779 0.82666 2.2099 3.68266 2.2099 5.51066V8.06366H0.00289917V12.0067H2.2099V23.1737H6.8519V12.0067H9.9839L10.3889 8.05966Z" fill="#005CFF"/>
</svg>

<svg version="1.2" xmlns="http://www.w3.org/2000/svg" viewBox="0 0 11 24" width="11" height="24"><style>.a{fill:#3cd3ff}</style><path class="a" d="m10.4 8.1h-3.5v-2.4q-0.1-0.2 0-0.4 0-0.2 0.2-0.3 0.1-0.2 0.3-0.3 0.2 0 0.4 0h2.5v-3.9h-3.4c-3.8 0-4.7 2.9-4.7 4.7v2.6h-2.2v3.9h2.2v11.2h4.7v-11.2h3.1z"/></svg>
